assets/icons/outline/code-match-whole-word.svg

<svg width="24" height="24" viewBox="0 0 24 24" fill="none" xmlns="http://www.w3.org/2000/svg">
<path d="M16.9948 17.6886C16.4724 17.6886 16.0043 17.5901 15.5903 17.3929C15.1862 17.186 14.8659 16.91 14.6294 16.565C14.4027 16.2201 14.2894 15.8308 14.2894 15.3971C14.2894 14.8649 14.4273 14.446 14.7033 14.1405C14.9793 13.8251 15.4277 13.5984 16.0486 13.4604C16.6696 13.3224 17.5024 13.2535 18.5471 13.2535H19.2863V14.3179H18.5619C17.9508 14.3179 17.463 14.3475 17.0983 14.4066C16.7336 14.4657 16.4724 14.5692 16.3148 14.7171C16.1669 14.855 16.093 15.0522 16.093 15.3084C16.093 15.6337 16.2063 15.8998 16.433 16.1067C16.6597 16.3137 16.9751 16.4172 17.3792 16.4172C17.7044 16.4172 17.9903 16.3433 18.2367 16.1954C18.4929 16.0378 18.695 15.8259 18.8428 15.5597C18.9906 15.2936 19.0646 14.9881 19.0646 14.6431V12.943C19.0646 12.4502 18.9561 12.0954 18.7393 11.8786C18.5225 11.6617 18.1578 11.5533 17.6453 11.5533C17.3595 11.5533 17.049 11.5878 16.7139 11.6568C16.3887 11.7258 16.0437 11.8441 15.679 12.0116C15.4918 12.1003 15.3242 12.1249 15.1764 12.0855C15.0384 12.0461 14.93 11.9673 14.8511 11.849C14.7723 11.7209 14.7329 11.5829 14.7329 11.435C14.7329 11.2872 14.7723 11.1443 14.8511 11.0063C14.93 10.8585 15.063 10.75 15.2503 10.6811C15.7037 10.4938 16.1373 10.3607 16.5513 10.2819C16.9751 10.203 17.3595 10.1636 17.7044 10.1636C18.4141 10.1636 18.9956 10.272 19.4489 10.4889C19.9122 10.7057 20.2571 11.0359 20.4838 11.4794C20.7105 11.913 20.8238 12.4748 20.8238 13.1648V16.7129C20.8238 17.0184 20.7499 17.255 20.6021 17.4225C20.4542 17.5802 20.2423 17.6591 19.9664 17.6591C19.6904 17.6591 19.4736 17.5802 19.3159 17.4225C19.168 17.255 19.0941 17.0184 19.0941 16.7129V16.0033H19.2124C19.1434 16.3482 19.0054 16.6488 18.7984 16.9051C18.6013 17.1515 18.35 17.3437 18.0445 17.4816C17.7389 17.6196 17.389 17.6886 16.9948 17.6886Z" fill="#282828"/>
<path d="M3.89404 17.6592C3.6575 17.6592 3.46531 17.605 3.31747 17.4966C3.17949 17.3882 3.09571 17.2452 3.06614 17.0678C3.03658 16.8806 3.07107 16.6736 3.16963 16.4469L7.07258 7.79833C7.20071 7.51251 7.35347 7.31046 7.53088 7.19219C7.71814 7.06406 7.93005 7 8.16659 7C8.39327 7 8.59532 7.06406 8.77273 7.19219C8.95999 7.31046 9.11768 7.51251 9.24581 7.79833L13.1635 16.4469C13.272 16.6736 13.3114 16.8806 13.2818 17.0678C13.2522 17.2551 13.1685 17.4029 13.0305 17.5114C12.8925 17.6099 12.7102 17.6592 12.4835 17.6592C12.2075 17.6592 11.9907 17.5951 11.833 17.467C11.6852 17.329 11.5521 17.122 11.4338 16.8461L10.4729 14.6137L11.2712 15.1311H5.0324L5.83073 14.6137L4.88456 16.8461C4.75644 17.1319 4.62338 17.3389 4.4854 17.467C4.34741 17.5951 4.1503 17.6592 3.89404 17.6592ZM8.13702 9.17323L6.06727 14.0963L5.68289 13.6232H10.6207L10.2511 14.0963L8.16659 9.17323H8.13702Z" fill="#282828"/>
</svg>

<svg xmlns="http://www.w3.org/2000/svg" width="24" height="24" fill="none" viewBox="0 0 24 24"><path fill="#282828" d="M16.995 17.689q-.784 0-1.405-.296a2.55 2.55 0 0 1-.96-.828 2.1 2.1 0 0 1-.34-1.168q0-.798.413-1.257.414-.473 1.346-.68.93-.207 2.498-.207h.74v1.065h-.725q-.917 0-1.464.089-.547.088-.783.31-.222.207-.222.591 0 .489.34.799t.946.31q.488 0 .858-.222.384-.236.606-.635.222-.4.222-.917v-1.7q0-.74-.326-1.064-.324-.326-1.094-.326a4.6 4.6 0 0 0-.931.104q-.488.103-1.035.355-.28.132-.503.073a.56.56 0 0 1-.325-.236.8.8 0 0 1-.118-.414q0-.221.118-.429a.7.7 0 0 1 .4-.325q.68-.28 1.3-.4a6.4 6.4 0 0 1 1.153-.117q1.065 0 1.745.325a2.15 2.15 0 0 1 1.035.99q.34.651.34 1.686v3.548q0 .458-.222.71-.222.236-.636.236-.413 0-.65-.236-.222-.252-.222-.71v-.71h.118a2.003 2.003 0 0 1-1.168 1.478 2.5 2.5 0 0 1-1.05.208M3.894 17.66q-.355 0-.577-.163a.67.67 0 0 1-.25-.43q-.045-.28.103-.62l3.903-8.649q.191-.428.458-.606A1.1 1.1 0 0 1 8.167 7q.339 0 .606.192.28.177.473.606l3.918 8.649q.162.34.118.62a.68.68 0 0 1-.252.444q-.206.148-.546.148-.415 0-.651-.192-.221-.207-.4-.62l-.96-2.233.798.517H5.032l.799-.517-.946 2.232q-.193.429-.4.621t-.591.192m4.243-8.487-2.07 4.923-.384-.473h4.938l-.37.473-2.084-4.923z"/></svg>
